X: 32
T:Stack of Barley
M:4/4
L:1/8
Q:120
C:Traditional
K:G
gf | efed BedB | AGEG AcBA | GFGA BA (3Bcd | eAAG A2 Bd | efgf efdB | AG
EG AcBA | GFGA (3Bcd Ac | B2 G2 G3 A || Bdef g2 fg | agfg edBd | gfed BA
 (3Bcd | eAAG A2 (3Bcd | (3efg af g2 fe | dBAG AcBA | GFGA (3Bcd Ac | B2
 G2 G2 z2 ||
